X:0410
T:Do. for the German Flute.
M:6/8
L:1/8
Q:3/8=120
I: :: ::
Z:Jack Campin * www.campin.me.uk * 2009
K:B Minor
A   | FBB    B2A  | Bde    f2b  |afe  (d/e/f).e| dBA   A3 |\
      FBB    B2A  | Bde    fba  |fd'b  afe     | dBB   B2::
f/a/|Tb2d'   afd  | efa    b2d' |afe  (d/e/f).e|(dB).A A2
A   |(Bd).A (Bd).A|(Bd).e (fb).a|fd'b (af).e   | dBB   B2:|
<end>
<start>
